X: 25145
T: Mairtin O'Connor's Flying Clog
R: reel
M: 4/4
K: Dmajor
|:D2 D/D/D ADFA|BDGB AFEF|D2 D/D/D FDEF|"A"G"U"B, "A"B,/B,/B, DB,A,B,|
D2 D/D/D ADFA|BDGB AFEF|"U"G"A"B, "A"B,/B,/B, DB,A,B,|1 A,CEA FAEF:|
|:FA A/A/A BAdA|BAdA BdAG|FA A/A/A BAdA|Beed cBAG|
FGAF FGGB,|B,/B,/B, GB, A,A,FA,|GB, B,/B,/B, DB,A,B,|1 A,CEA FDDE:|

